images/50659349.svg

<?xml version="1.0" encoding="UTF-8"?>
<svg xmlns="http://www.w3.org/2000/svg" xmlns:xlink="http://www.w3.org/1999/xlink" width="300pt" height="300pt" viewBox="0 0 300 300" version="1.1">
<defs>
<g>
<symbol overflow="visible" id="glyph0-0">
<path style="stroke:none;" d="M 0.453125 1.59375 L 0.453125 -6.34375 L 4.953125 -6.34375 L 4.953125 1.59375 Z M 0.953125 1.09375 L 4.453125 1.09375 L 4.453125 -5.84375 L 0.953125 -5.84375 Z M 0.953125 1.09375 "/>
</symbol>
<symbol overflow="visible" id="glyph0-1">
<path style="stroke:none;" d="M 3.546875 -5.953125 C 2.898438 -5.953125 2.382812 -5.710938 2 -5.234375 C 1.625 -4.753906 1.4375 -4.101562 1.4375 -3.28125 C 1.4375 -2.445312 1.625 -1.789062 2 -1.3125 C 2.382812 -0.832031 2.898438 -0.59375 3.546875 -0.59375 C 4.191406 -0.59375 4.703125 -0.832031 5.078125 -1.3125 C 5.453125 -1.789062 5.640625 -2.445312 5.640625 -3.28125 C 5.640625 -4.101562 5.453125 -4.753906 5.078125 -5.234375 C 4.703125 -5.710938 4.191406 -5.953125 3.546875 -5.953125 Z M 3.546875 -6.6875 C 4.460938 -6.6875 5.195312 -6.375 5.75 -5.75 C 6.300781 -5.132812 6.578125 -4.3125 6.578125 -3.28125 C 6.578125 -2.238281 6.300781 -1.410156 5.75 -0.796875 C 5.195312 -0.179688 4.460938 0.125 3.546875 0.125 C 2.617188 0.125 1.878906 -0.179688 1.328125 -0.796875 C 0.773438 -1.410156 0.5 -2.238281 0.5 -3.28125 C 0.5 -4.3125 0.773438 -5.132812 1.328125 -5.75 C 1.878906 -6.375 2.617188 -6.6875 3.546875 -6.6875 Z M 3.546875 -6.6875 "/>
</symbol>
<symbol overflow="visible" id="glyph0-2">
<path style="stroke:none;" d="M 0.890625 -6.5625 L 2.078125 -6.5625 L 4.984375 -1.078125 L 4.984375 -6.5625 L 5.84375 -6.5625 L 5.84375 0 L 4.65625 0 L 1.75 -5.484375 L 1.75 0 L 0.890625 0 Z M 0.890625 -6.5625 "/>
</symbol>
<symbol overflow="visible" id="glyph0-3">
<path style="stroke:none;" d="M 0.890625 -6.5625 L 1.765625 -6.5625 L 1.765625 -3.875 L 5 -3.875 L 5 -6.5625 L 5.890625 -6.5625 L 5.890625 0 L 5 0 L 5 -3.125 L 1.765625 -3.125 L 1.765625 0 L 0.890625 0 Z M 0.890625 -6.5625 "/>
</symbol>
</g>
</defs>
<g id="surface28325">
<rect x="0" y="0" width="300" height="300" style="fill:rgb(100%,100%,100%);fill-opacity:1;stroke:none;"/>
<path style="fill:none;stroke-width:1.2;stroke-linecap:butt;stroke-linejoin:miter;stroke:rgb(100%,0%,0%);stroke-opacity:1;stroke-miterlimit:10;" d="M 66.039062 206.007812 L 74.257812 196.78125 "/>
<path style="fill:none;stroke-width:1.2;stroke-linecap:butt;stroke-linejoin:miter;stroke:rgb(0%,0%,0%);stroke-opacity:1;stroke-miterlimit:10;" d="M 74.257812 196.78125 L 82.472656 187.554688 "/>
<path style="fill:none;stroke-width:1.2;stroke-linecap:butt;stroke-linejoin:miter;stroke:rgb(100%,0%,0%);stroke-opacity:1;stroke-miterlimit:10;" d="M 61.699219 202.140625 L 69.914062 192.914062 "/>
<path style="fill:none;stroke-width:1.2;stroke-linecap:butt;stroke-linejoin:miter;stroke:rgb(0%,0%,0%);stroke-opacity:1;stroke-miterlimit:10;" d="M 69.914062 192.914062 L 78.132812 183.691406 "/>
<path style=" stroke:none;fill-rule:nonzero;fill:rgb(100%,100%,100%);fill-opacity:1;" d="M 55.871094 198.574219 L 63.871094 198.574219 L 63.871094 209.574219 L 55.871094 209.574219 Z M 55.871094 198.574219 "/>
<g style="fill:rgb(100%,0%,0%);fill-opacity:1;">
  <use xlink:href="#glyph0-1" x="55.871094" y="207.237305"/>
</g>
<path style="fill:none;stroke-width:1.2;stroke-linecap:butt;stroke-linejoin:miter;stroke:rgb(0%,0%,0%);stroke-opacity:1;stroke-miterlimit:10;" d="M 80.304688 185.621094 L 92.597656 186.847656 "/>
<path style="fill:none;stroke-width:1.2;stroke-linecap:butt;stroke-linejoin:miter;stroke:rgb(0%,0%,100%);stroke-opacity:1;stroke-miterlimit:10;" d="M 92.597656 186.847656 L 104.890625 188.070312 "/>
<path style="fill:none;stroke-width:1.2;stroke-linecap:butt;stroke-linejoin:miter;stroke:rgb(0%,0%,0%);stroke-opacity:1;stroke-miterlimit:10;" d="M 75.035156 161.480469 L 80.304688 185.621094 "/>
<path style="fill:none;stroke-width:1.2;stroke-linecap:butt;stroke-linejoin:miter;stroke:rgb(0%,0%,100%);stroke-opacity:1;stroke-miterlimit:10;" d="M 104.890625 188.070312 L 109.855469 176.757812 "/>
<path style="fill:none;stroke-width:1.2;stroke-linecap:butt;stroke-linejoin:miter;stroke:rgb(0%,0%,0%);stroke-opacity:1;stroke-miterlimit:10;" d="M 109.855469 176.757812 L 114.820312 165.445312 "/>
<path style=" stroke:none;fill-rule:nonzero;fill:rgb(100%,100%,100%);fill-opacity:1;" d="M 97.890625 182.570312 L 111.890625 182.570312 L 111.890625 193.570312 L 97.890625 193.570312 Z M 97.890625 182.570312 "/>
<g style="fill:rgb(0%,0%,100%);fill-opacity:1;">
  <use xlink:href="#glyph0-2" x="97.890625" y="191.233398"/>
  <use xlink:href="#glyph0-3" x="104.868164" y="191.233398"/>
</g>
<path style="fill:none;stroke-width:1.2;stroke-linecap:butt;stroke-linejoin:miter;stroke:rgb(0%,0%,0%);stroke-opacity:1;stroke-miterlimit:10;" d="M 114.820312 165.445312 L 126.546875 161.5625 "/>
<path style="fill:none;stroke-width:1.2;stroke-linecap:butt;stroke-linejoin:miter;stroke:rgb(0%,0%,100%);stroke-opacity:1;stroke-miterlimit:10;" d="M 126.546875 161.5625 L 138.277344 157.679688 "/>
<path style="fill:none;stroke-width:1.2;stroke-linecap:butt;stroke-linejoin:miter;stroke:rgb(0%,0%,0%);stroke-opacity:1;stroke-miterlimit:10;" d="M 115.339844 159.148438 L 124.722656 156.042969 "/>
<path style="fill:none;stroke-width:1.2;stroke-linecap:butt;stroke-linejoin:miter;stroke:rgb(0%,0%,100%);stroke-opacity:1;stroke-miterlimit:10;" d="M 124.722656 156.042969 L 134.105469 152.9375 "/>
<path style="fill:none;stroke-width:1.2;stroke-linecap:butt;stroke-linejoin:miter;stroke:rgb(0%,0%,0%);stroke-opacity:1;stroke-miterlimit:10;" d="M 96.367188 149.011719 L 114.820312 165.445312 "/>
<path style="fill:none;stroke-width:1.2;stroke-linecap:butt;stroke-linejoin:miter;stroke:rgb(0%,0%,100%);stroke-opacity:1;stroke-miterlimit:10;" d="M 138.277344 157.679688 L 140.78125 145.582031 "/>
<path style="fill:none;stroke-width:1.2;stroke-linecap:butt;stroke-linejoin:miter;stroke:rgb(0%,0%,0%);stroke-opacity:1;stroke-miterlimit:10;" d="M 140.78125 145.582031 L 143.28125 133.484375 "/>
<path style=" stroke:none;fill-rule:nonzero;fill:rgb(100%,100%,100%);fill-opacity:1;" d="M 135.277344 152.179688 L 142.277344 152.179688 L 142.277344 163.179688 L 135.277344 163.179688 Z M 135.277344 152.179688 "/>
<g style="fill:rgb(0%,0%,100%);fill-opacity:1;">
  <use xlink:href="#glyph0-2" x="135.277344" y="160.842773"/>
</g>
<path style="fill:none;stroke-width:1.2;stroke-linecap:butt;stroke-linejoin:miter;stroke:rgb(0%,0%,0%);stroke-opacity:1;stroke-miterlimit:10;" d="M 143.28125 133.484375 L 124.832031 117.050781 "/>
<path style="fill:none;stroke-width:1.2;stroke-linecap:butt;stroke-linejoin:miter;stroke:rgb(0%,0%,0%);stroke-opacity:1;stroke-miterlimit:10;" d="M 137.570312 136.179688 L 122.808594 123.035156 "/>
<path style="fill:none;stroke-width:1.2;stroke-linecap:butt;stroke-linejoin:miter;stroke:rgb(0%,0%,0%);stroke-opacity:1;stroke-miterlimit:10;" d="M 143.28125 133.484375 L 166.742188 125.71875 "/>
<path style="fill:none;stroke-width:1.2;stroke-linecap:butt;stroke-linejoin:miter;stroke:rgb(0%,0%,0%);stroke-opacity:1;stroke-miterlimit:10;" d="M 124.832031 117.050781 L 101.371094 124.8125 "/>
<path style="fill:none;stroke-width:1.2;stroke-linecap:butt;stroke-linejoin:miter;stroke:rgb(0%,0%,0%);stroke-opacity:1;stroke-miterlimit:10;" d="M 101.371094 124.8125 L 96.367188 149.011719 "/>
<path style="fill:none;stroke-width:1.2;stroke-linecap:butt;stroke-linejoin:miter;stroke:rgb(0%,0%,0%);stroke-opacity:1;stroke-miterlimit:10;" d="M 106.566406 128.410156 L 102.558594 147.769531 "/>
<path style="fill:none;stroke-width:1.2;stroke-linecap:butt;stroke-linejoin:miter;stroke:rgb(0%,0%,0%);stroke-opacity:1;stroke-miterlimit:10;" d="M 96.367188 149.011719 L 75.035156 161.480469 "/>
<path style="fill:none;stroke-width:1.2;stroke-linecap:butt;stroke-linejoin:miter;stroke:rgb(0%,0%,0%);stroke-opacity:1;stroke-miterlimit:10;" d="M 75.035156 161.480469 L 53.703125 173.953125 "/>
<path style="fill:none;stroke-width:1.2;stroke-linecap:butt;stroke-linejoin:miter;stroke:rgb(0%,0%,0%);stroke-opacity:1;stroke-miterlimit:10;" d="M 69.765625 137.339844 L 75.035156 161.480469 "/>
<path style="fill:none;stroke-width:1.2;stroke-linecap:butt;stroke-linejoin:miter;stroke:rgb(0%,0%,0%);stroke-opacity:1;stroke-miterlimit:10;" d="M 53.703125 173.953125 L 35.25 157.519531 "/>
<path style="fill:none;stroke-width:1.2;stroke-linecap:butt;stroke-linejoin:miter;stroke:rgb(0%,0%,0%);stroke-opacity:1;stroke-miterlimit:10;" d="M 35.25 157.519531 L 45.175781 134.890625 "/>
<path style="fill:none;stroke-width:1.2;stroke-linecap:butt;stroke-linejoin:miter;stroke:rgb(0%,0%,0%);stroke-opacity:1;stroke-miterlimit:10;" d="M 45.175781 134.890625 L 69.765625 137.339844 "/>
<path style="fill:none;stroke-width:1.2;stroke-linecap:butt;stroke-linejoin:miter;stroke:rgb(0%,0%,0%);stroke-opacity:1;stroke-miterlimit:10;" d="M 166.742188 125.71875 L 185.195312 142.152344 "/>
<path style="fill:none;stroke-width:1.2;stroke-linecap:butt;stroke-linejoin:miter;stroke:rgb(0%,0%,0%);stroke-opacity:1;stroke-miterlimit:10;" d="M 172.453125 123.019531 L 187.214844 136.167969 "/>
<path style="fill:none;stroke-width:1.2;stroke-linecap:butt;stroke-linejoin:miter;stroke:rgb(0%,0%,0%);stroke-opacity:1;stroke-miterlimit:10;" d="M 171.746094 101.519531 L 166.742188 125.71875 "/>
<path style="fill:none;stroke-width:1.2;stroke-linecap:butt;stroke-linejoin:miter;stroke:rgb(0%,0%,0%);stroke-opacity:1;stroke-miterlimit:10;" d="M 185.195312 142.152344 L 208.652344 134.390625 "/>
<path style="fill:none;stroke-width:1.2;stroke-linecap:butt;stroke-linejoin:miter;stroke:rgb(0%,0%,0%);stroke-opacity:1;stroke-miterlimit:10;" d="M 208.652344 134.390625 L 213.65625 110.191406 "/>
<path style="fill:none;stroke-width:1.2;stroke-linecap:butt;stroke-linejoin:miter;stroke:rgb(0%,0%,0%);stroke-opacity:1;stroke-miterlimit:10;" d="M 203.460938 130.792969 L 207.464844 111.433594 "/>
<path style="fill:none;stroke-width:1.2;stroke-linecap:butt;stroke-linejoin:miter;stroke:rgb(0%,0%,0%);stroke-opacity:1;stroke-miterlimit:10;" d="M 208.652344 134.390625 L 227.105469 150.824219 "/>
<path style="fill:none;stroke-width:1.2;stroke-linecap:butt;stroke-linejoin:miter;stroke:rgb(0%,0%,0%);stroke-opacity:1;stroke-miterlimit:10;" d="M 213.65625 110.191406 L 195.207031 93.757812 "/>
<path style="fill:none;stroke-width:1.2;stroke-linecap:butt;stroke-linejoin:miter;stroke:rgb(0%,0%,0%);stroke-opacity:1;stroke-miterlimit:10;" d="M 195.207031 93.757812 L 171.746094 101.519531 "/>
<path style="fill:none;stroke-width:1.2;stroke-linecap:butt;stroke-linejoin:miter;stroke:rgb(0%,0%,0%);stroke-opacity:1;stroke-miterlimit:10;" d="M 194.6875 100.054688 L 175.917969 106.265625 "/>
<path style="fill:none;stroke-width:1.2;stroke-linecap:butt;stroke-linejoin:miter;stroke:rgb(0%,0%,0%);stroke-opacity:1;stroke-miterlimit:10;" d="M 171.746094 101.519531 L 153.292969 85.085938 "/>
<path style="fill:none;stroke-width:1.2;stroke-linecap:butt;stroke-linejoin:miter;stroke:rgb(0%,0%,0%);stroke-opacity:1;stroke-miterlimit:10;" d="M 228.019531 153.582031 L 239.746094 149.699219 "/>
<path style="fill:none;stroke-width:1.2;stroke-linecap:butt;stroke-linejoin:miter;stroke:rgb(100%,0%,0%);stroke-opacity:1;stroke-miterlimit:10;" d="M 239.746094 149.699219 L 251.476562 145.820312 "/>
<path style="fill:none;stroke-width:1.2;stroke-linecap:butt;stroke-linejoin:miter;stroke:rgb(0%,0%,0%);stroke-opacity:1;stroke-miterlimit:10;" d="M 226.191406 148.0625 L 237.921875 144.179688 "/>
<path style="fill:none;stroke-width:1.2;stroke-linecap:butt;stroke-linejoin:miter;stroke:rgb(100%,0%,0%);stroke-opacity:1;stroke-miterlimit:10;" d="M 237.921875 144.179688 L 249.652344 140.300781 "/>
<path style="fill:none;stroke-width:1.2;stroke-linecap:butt;stroke-linejoin:miter;stroke:rgb(0%,0%,0%);stroke-opacity:1;stroke-miterlimit:10;" d="M 227.105469 150.824219 L 224.601562 162.921875 "/>
<path style="fill:none;stroke-width:1.2;stroke-linecap:butt;stroke-linejoin:miter;stroke:rgb(0%,0%,100%);stroke-opacity:1;stroke-miterlimit:10;" d="M 224.601562 162.921875 L 222.101562 175.019531 "/>
<path style=" stroke:none;fill-rule:nonzero;fill:rgb(100%,100%,100%);fill-opacity:1;" d="M 246.5625 137.558594 L 254.5625 137.558594 L 254.5625 148.558594 L 246.5625 148.558594 Z M 246.5625 137.558594 "/>
<g style="fill:rgb(100%,0%,0%);fill-opacity:1;">
  <use xlink:href="#glyph0-1" x="246.5625" y="146.22168"/>
</g>
<path style="fill:none;stroke-width:1.2;stroke-linecap:butt;stroke-linejoin:miter;stroke:rgb(0%,0%,100%);stroke-opacity:1;stroke-miterlimit:10;" d="M 222.101562 175.019531 L 231.324219 183.238281 "/>
<path style="fill:none;stroke-width:1.2;stroke-linecap:butt;stroke-linejoin:miter;stroke:rgb(0%,0%,0%);stroke-opacity:1;stroke-miterlimit:10;" d="M 231.324219 183.238281 L 240.550781 191.453125 "/>
<path style=" stroke:none;fill-rule:nonzero;fill:rgb(100%,100%,100%);fill-opacity:1;" d="M 215.101562 169.519531 L 229.101562 169.519531 L 229.101562 180.519531 L 215.101562 180.519531 Z M 215.101562 169.519531 "/>
<g style="fill:rgb(0%,0%,100%);fill-opacity:1;">
  <use xlink:href="#glyph0-2" x="215.101562" y="178.182617"/>
  <use xlink:href="#glyph0-3" x="222.079102" y="178.182617"/>
</g>
<path style="fill:none;stroke-width:1.2;stroke-linecap:butt;stroke-linejoin:miter;stroke:rgb(0%,0%,0%);stroke-opacity:1;stroke-miterlimit:10;" d="M 240.550781 191.453125 L 264.75 196.460938 "/>
<path style="fill:none;stroke-width:1.2;stroke-linecap:butt;stroke-linejoin:miter;stroke:rgb(0%,0%,0%);stroke-opacity:1;stroke-miterlimit:10;" d="M 248.316406 214.914062 L 240.550781 191.453125 "/>
<path style="fill:none;stroke-width:1.2;stroke-linecap:butt;stroke-linejoin:miter;stroke:rgb(0%,0%,0%);stroke-opacity:1;stroke-miterlimit:10;" d="M 264.75 196.460938 L 248.316406 214.914062 "/>
</g>
</svg>

<svg xmlns="http://www.w3.org/2000/svg" xmlns:xlink="http://www.w3.org/1999/xlink" width="300pt" height="300pt" viewBox="0 0 300 300"><defs><symbol overflow="visible"><path d="M.453 1.594v-7.938h4.5v7.938zm.5-.5h3.5v-6.938h-3.5zm0 0"/></symbol><symbol overflow="visible" id="a"><path d="M3.547-5.953c-.65 0-1.164.242-1.547.72-.375.48-.563 1.13-.563 1.952 0 .835.188 1.49.563 1.967.383.48.898.72 1.547.72.644 0 1.156-.24 1.53-.72.376-.476.564-1.132.564-1.968 0-.822-.187-1.474-.562-1.954-.375-.477-.887-.72-1.53-.72zm0-.734c.914 0 1.648.312 2.203.937.55.617.828 1.438.828 2.47 0 1.042-.277 1.87-.828 2.483-.555.617-1.29.922-2.203.922-.93 0-1.668-.305-2.22-.922C.774-1.41.5-2.237.5-3.28c0-1.033.273-1.853.828-2.47.55-.625 1.29-.938 2.22-.938zm0 0"/></symbol><symbol overflow="visible" id="b"><path d="M.89-6.563H2.08l2.906 5.485v-5.484h.86V0H4.656L1.75-5.484V0H.89zm0 0"/></symbol><symbol overflow="visible" id="c"><path d="M.89-6.563h.876v2.688H5v-2.688h.89V0H5v-3.125H1.766V0H.89zm0 0"/></symbol></defs><g><path fill="#fff" d="M0 0h300v300H0z"/><path d="M66.04 206.008l8.218-9.227" stroke-width="1.2" stroke="#f00" stroke-miterlimit="10" fill="none"/><path d="M74.258 196.78l8.215-9.225" stroke-width="1.2" stroke="#000" stroke-miterlimit="10" fill="none"/><path d="M61.7 202.14l8.214-9.226" stroke-width="1.2" stroke="#f00" stroke-miterlimit="10" fill="none"/><path d="M69.914 192.914l8.22-9.223" stroke-width="1.2" stroke="#000" stroke-miterlimit="10" fill="none"/><path d="M55.87 198.574h8v11h-8zm0 0" fill="#fff"/><use xlink:href="#a" x="55.871" y="207.237" fill="#f00"/><path d="M80.305 185.62l12.293 1.228" stroke-width="1.2" stroke="#000" stroke-miterlimit="10" fill="none"/><path d="M92.598 186.848l12.293 1.222" stroke-width="1.2" stroke="#00f" stroke-miterlimit="10" fill="none"/><path d="M75.035 161.48l5.27 24.14" stroke-width="1.2" stroke="#000" stroke-miterlimit="10" fill="none"/><path d="M104.89 188.07l4.965-11.312" stroke-width="1.2" stroke="#00f" stroke-miterlimit="10" fill="none"/><path d="M109.855 176.758l4.965-11.313" stroke-width="1.2" stroke="#000" stroke-miterlimit="10" fill="none"/><path d="M97.89 182.57h14v11h-14zm0 0" fill="#fff"/><g fill="#00f"><use xlink:href="#b" x="97.891" y="191.233"/><use xlink:href="#c" x="104.868" y="191.233"/></g><path d="M114.82 165.445l11.727-3.882" stroke-width="1.2" stroke="#000" stroke-miterlimit="10" fill="none"/><path d="M126.547 161.563l11.73-3.883" stroke-width="1.2" stroke="#00f" stroke-miterlimit="10" fill="none"/><path d="M115.34 159.148l9.383-3.105" stroke-width="1.2" stroke="#000" stroke-miterlimit="10" fill="none"/><path d="M124.723 156.043l9.382-3.106" stroke-width="1.2" stroke="#00f" stroke-miterlimit="10" fill="none"/><path d="M96.367 149.012l18.453 16.433" stroke-width="1.2" stroke="#000" stroke-miterlimit="10" fill="none"/><path d="M138.277 157.68l2.504-12.098" stroke-width="1.2" stroke="#00f" stroke-miterlimit="10" fill="none"/><path d="M140.78 145.582l2.5-12.098" stroke-width="1.2" stroke="#000" stroke-miterlimit="10" fill="none"/><path d="M135.277 152.18h7v11h-7zm0 0" fill="#fff"/><use xlink:href="#b" x="135.277" y="160.843" fill="#00f"/><path d="M143.28 133.484l-18.448-16.433M137.57 136.18l-14.76-13.145M143.28 133.484l23.462-7.765M124.832 117.05l-23.46 7.763M101.37 124.813l-5.003 24.2M106.566 128.41l-4.007 19.36M96.367 149.012L75.035 161.48M75.035 161.48l-21.332 12.473M69.766 137.34l5.27 24.14M53.703 173.953L35.25 157.52M35.25 157.52l9.926-22.63M45.176 134.89l24.59 2.45M166.742 125.72l18.453 16.432M172.453 123.02l14.762 13.148M171.746 101.52l-5.004 24.2M185.195 142.152l23.457-7.76M208.652 134.39l5.004-24.2M203.46 130.793l4.005-19.36M208.652 134.39l18.453 16.434M213.656 110.19l-18.45-16.432M195.207 93.758l-23.46 7.762M194.688 100.055l-18.77 6.21M171.746 101.52l-18.453-16.434M228.02 153.582l11.726-3.883" stroke-width="1.2" stroke="#000" stroke-miterlimit="10" fill="none"/><path d="M239.746 149.7l11.73-3.88" stroke-width="1.2" stroke="#f00" stroke-miterlimit="10" fill="none"/><path d="M226.19 148.063l11.732-3.883" stroke-width="1.2" stroke="#000" stroke-miterlimit="10" fill="none"/><path d="M237.922 144.18l11.73-3.88" stroke-width="1.2" stroke="#f00" stroke-miterlimit="10" fill="none"/><path d="M227.105 150.824l-2.503 12.098" stroke-width="1.2" stroke="#000" stroke-miterlimit="10" fill="none"/><path d="M224.602 162.922l-2.5 12.098" stroke-width="1.2" stroke="#00f" stroke-miterlimit="10" fill="none"/><path d="M246.563 137.56h8v11h-8zm0 0" fill="#fff"/><use xlink:href="#a" x="246.563" y="146.222" fill="#f00"/><path d="M222.102 175.02l9.222 8.218" stroke-width="1.2" stroke="#00f" stroke-miterlimit="10" fill="none"/><path d="M231.324 183.238l9.227 8.215" stroke-width="1.2" stroke="#000" stroke-miterlimit="10" fill="none"/><path d="M215.102 169.52h14v11h-14zm0 0" fill="#fff"/><g fill="#00f"><use xlink:href="#b" x="215.102" y="178.183"/><use xlink:href="#c" x="222.079" y="178.183"/></g><path d="M240.55 191.453l24.2 5.008M248.316 214.914l-7.765-23.46M264.75 196.46l-16.434 18.454" stroke-width="1.2" stroke="#000" stroke-miterlimit="10" fill="none"/></g></svg>
